X:601
T:"509:an"
R:vals
S:Efter »[[Personer/Florsen]]» i Burs.
B:Gotlandstoner nr 509
Z:Erik Ronström 2003-03-01
O:Gotland, Burs
M:3/4
L:1/8
K:Am
e2 dc B2|c2 (AcAc)|B2 (^GB)(^GB)|(AE)(AB)(cd)|
e2 dc B2|c2 (AcAc)|B2 E2 ^G2|1 A4 z2:|2 A4 AB|
K:C
|:c2 c2 d2|e4 ce|gf d2 d2|e4 ce|(gf)(df)(df)|
e2 (ce)(ce)|dB G2 G2|1 c4 AB:|2 c4 z2|]
(:musicend:)
(:music:)
